src/svgs/arrow-left.svg

<svg fill="none" height="10" viewBox="0 0 14 10" width="14" xmlns="http://www.w3.org/2000/svg" xmlns:xlink="http://www.w3.org/1999/xlink"><clipPath id="a"><path d="m0 0h13.3333v10h-13.3333z"/></clipPath><g clip-path="url(#a)"><path d="m4.34951.140979c.18797-.1879721.4839-.1879721.67187 0 .18162.181622.18162.483902 0 .665101l-3.40679 3.40679h11.24191c.2621 0 .4772.20829.4772.47035s-.2151.47713-.4772.47713h-11.24191l3.40679 3.40045c.18162.18793.18162.49067 0 .67187-.18797.18793-.4839.18793-.67187 0l-4.213293-4.2133c-.1816225-.18162-.1816225-.4839 0-.6651z" fill="#fff"/></g></svg>

<svg width="14" height="10" viewBox="0 0 14 10" fill="none" xmlns="http://www.w3.org/2000/svg">
<g clip-path="url(#clip0)">
<path d="M4.34951 0.140979C4.53748 -0.0469931 4.83341 -0.0469931 5.02138 0.140979C5.203 0.322601 5.203 0.624881 5.02138 0.80608L1.61459 4.21287H12.8565C13.1186 4.21287 13.3337 4.42116 13.3337 4.68322C13.3337 4.94528 13.1186 5.16035 12.8565 5.16035H1.61459L5.02138 8.5608C5.203 8.74873 5.203 9.05147 5.02138 9.23267C4.83341 9.4206 4.53748 9.4206 4.34951 9.23267L0.136217 5.01937C-0.0454055 4.83775 -0.0454055 4.53547 0.136217 4.35427L4.34951 0.140979Z" fill="white"/>
</g>
<defs>
<clipPath id="clip0">
<rect width="13.3333" height="10" fill="white"/>
</clipPath>
</defs>
</svg>
